X:66
T:T039-  Rattle the Bottles
S:Brysson's Curious Collection (1791)
Q:1/4=120
L:1/8
M:6/8
K:Edorian
A/B/c/|d2d cBA|BAG FED|d3/2e/2d cBA|BAF ABc|\
dfd cec|{c/}BAG ~FEF|D/D/DD D/D/DD|~BAF E2::f|\
d2fa2f|b2g afd|dfg afa|cea ecA|d3/2(e/2f/2g/2 a)fa|\
bgb afa|gbg efd|cdcA2:|]

